packages/kaspersky-hexa-ui-icons/src/iconsSVGs/48/TrustedAppMode.svg

<svg width="48" height="48" viewBox="0 0 48 48" fill="none" xmlns="http://www.w3.org/2000/svg">
<path fill-rule="evenodd" clip-rule="evenodd" d="M0 3V45H48V3H0ZM46 5V9H2V5H46ZM2 43V11H46V43H2ZM32 21C32 16.5817 28.4183 13 24 13C19.5817 13 16 16.5817 16 21V25H13V41H35V25H32V21ZM18 21C18 17.6863 20.6863 15 24 15C27.3137 15 30 17.6863 30 21V25H28V21C28 18.7909 26.2091 17 24 17C21.7909 17 20 18.7909 20 21V25H18V21ZM26 25H22V21C22 19.8954 22.8954 19 24 19C25.1046 19 26 19.8954 26 21V25ZM31.09 37L29.09 39H26.91L28.91 37H31.09ZM24.09 39H21.91L23.91 37H26.09L24.09 39ZM19.09 39H16.91L18.91 37H21.09L19.09 39ZM15 38.09V37H16.09L15 38.09ZM31.91 39L33 37.91V39H31.91ZM33 35H15V27H33V35ZM45 8H43V6H45V8ZM41 8H39V6H41V8Z"  fill="currentColor"/>
</svg>

<svg xmlns="http://www.w3.org/2000/svg" width="48" height="48" fill="none" viewBox="0 0 48 48"><path fill="currentColor" fill-rule="evenodd" d="M0 3v42h48V3zm46 2v4H2V5zM2 43V11h44v32zm30-22c0-4.4183-3.5817-8-8-8s-8 3.5817-8 8v4h-3v16h22V25h-3zm-14 0c0-3.3137 2.6863-6 6-6s6 2.6863 6 6v4h-2v-4c0-2.2091-1.7909-4-4-4s-4 1.7909-4 4v4h-2zm8 4h-4v-4c0-1.1046.8954-2 2-2s2 .8954 2 2zm5.09 12-2 2h-2.18l2-2zm-7 2h-2.18l2-2h2.18zm-5 0h-2.18l2-2h2.18zM15 38.09V37h1.09zm16.91.91L33 37.91V39zM33 35H15v-8h18zM45 8h-2V6h2zm-4 0h-2V6h2z" clip-rule="evenodd"/></svg>
